X: 19118
T: Irish Show Boy, The
R: jig
M: 6/8
K: Dmajor
f/e/|:d2A FED|EFE cBc|dfd AFD|EDD d2f/e/|
d2A FED|EFE cBc|dfd AFD|1 EDD d2f/e/:|2 EDD D2A||
|:dcd Bcd|efd cBA|dcd efg|fdd d2f|
gfg Bcd|efd cBA|dAG gfe|1 fdd d2A:|2 fdd d2||

